X: 38
T: Ukelele Fling
C: Armand Aromin
H: 4/17/05
M: 2/4
L: 1/8
R: Fling
K: Dmaj
F>A df | e2 dc | B>A Bc | BA F2 |
F>A df | e2 dc | B>A Bc |1 d2 dA :|2 d2 de ||
f>d fa | g2 gf | e>A eg | f2 fe |
d>B df | e2 dc | B>A Bc |1 d2 de :|2 d2 dA |]
